_site/images/features-page/circle-cancel.svg

<svg fill="none" height="42" viewBox="0 0 42 42" width="42" xmlns="http://www.w3.org/2000/svg"><circle cx="21" cy="21" fill="#9aabbf" fill-opacity=".25" r="21"/><path clip-rule="evenodd" d="m28.0701 13.9301c-2.5108-2.5996-6.2288-3.6421-9.7251-2.727-3.4963.9152-6.2267 3.6456-7.1419 7.1419-.9151 3.4963.1274 7.2143 2.727 9.7251 2.5107 2.5995 6.2288 3.6421 9.7251 2.727 3.4963-.9152 6.2267-3.6456 7.1419-7.1419.9151-3.4963-.1275-7.2144-2.727-9.7251zm-3.36 3.36c-.1878-.1894-.4434-.2958-.71-.2958-.2667 0-.5223.1064-.71.2958l-2.29 2.3-2.29-2.3c-.3922-.3922-1.0279-.3922-1.42 0-.3922.3921-.3922 1.0278 0 1.42l2.3 2.29-2.3 2.29c-.1894.1877-.2958.4433-.2958.71 0 .2666.1064.5222.2958.71.1877.1893.4433.2958.71.2958.2666 0 .5222-.1065.71-.2958l2.29-2.3 2.29 2.3c.1877.1893.4433.2958.71.2958.2666 0 .5222-.1065.71-.2958.1893-.1878.2958-.4434.2958-.71 0-.2667-.1065-.5223-.2958-.71l-2.3-2.29 2.3-2.29c.1893-.1878.2958-.4434.2958-.71 0-.2667-.1065-.5223-.2958-.71zm-8.1505 10.3708c3.1745 2.1183 7.4034 1.6993 10.1005-1.0008 1.5046-1.4984 2.3472-3.5365 2.34-5.66-.003-3.8164-2.7014-7.0993-6.445-7.8411s-7.49 1.264-8.9481 4.7909-.2219 7.5926 2.9526 9.711z" fill="#6782a3" fill-rule="evenodd" opacity=".75"/></svg>

<svg width="42" height="42" viewBox="0 0 42 42" fill="none" xmlns="http://www.w3.org/2000/svg">
<circle cx="21" cy="21" r="21" fill="#9AABBF" fill-opacity="0.25"/>
<g opacity="0.75">
<path fill-rule="evenodd" clip-rule="evenodd" d="M28.0701 13.9301C25.5593 11.3305 21.8413 10.288 18.345 11.2031C14.8487 12.1183 12.1183 14.8487 11.2031 18.345C10.288 21.8413 11.3305 25.5593 13.9301 28.0701C16.4408 30.6696 20.1589 31.7122 23.6552 30.7971C27.1515 29.8819 29.8819 27.1515 30.7971 23.6552C31.7122 20.1589 30.6696 16.4408 28.0701 13.9301ZM24.7101 17.2901C24.5223 17.1007 24.2667 16.9943 24.0001 16.9943C23.7334 16.9943 23.4778 17.1007 23.2901 17.2901L21.0001 19.5901L18.7101 17.2901C18.3179 16.8979 17.6822 16.8979 17.2901 17.2901C16.8979 17.6822 16.8979 18.3179 17.2901 18.7101L19.5901 21.0001L17.2901 23.2901C17.1007 23.4778 16.9943 23.7334 16.9943 24.0001C16.9943 24.2667 17.1007 24.5223 17.2901 24.7101C17.4778 24.8994 17.7334 25.0059 18.0001 25.0059C18.2667 25.0059 18.5223 24.8994 18.7101 24.7101L21.0001 22.4101L23.2901 24.7101C23.4778 24.8994 23.7334 25.0059 24.0001 25.0059C24.2667 25.0059 24.5223 24.8994 24.7101 24.7101C24.8994 24.5223 25.0059 24.2667 25.0059 24.0001C25.0059 23.7334 24.8994 23.4778 24.7101 23.2901L22.4101 21.0001L24.7101 18.7101C24.8994 18.5223 25.0059 18.2667 25.0059 18.0001C25.0059 17.7334 24.8994 17.4778 24.7101 17.2901ZM16.5596 27.6609C19.7341 29.7792 23.963 29.3602 26.6601 26.6601C28.1647 25.1617 29.0073 23.1236 29.0001 21.0001C28.9971 17.1837 26.2987 13.9008 22.5551 13.159C18.8115 12.4172 15.0651 14.423 13.607 17.9499C12.1489 21.4768 13.3851 25.5425 16.5596 27.6609Z" fill="#6782A3"/>
</g>
</svg>
